public/images/icons/adherent_menu/active/activity.svg

<svg xmlns="http://www.w3.org/2000/svg" width="20" height="20" viewBox="0 0 20 20"><path fill="#46D5C7" d="M5.06054244,4.60208453 C5.401268,3.8165178 6.48756477,3.80587642 6.86328663,4.53373664 L6.91413358,4.64844988 L10.067,13.046 L11.771469,8.09185397 C12.0518806,7.27667182 13.14408,7.18746146 13.5696201,7.89328011 L13.6282664,8.00512426 L14.666,10.301 L20,10.3014412 L20,12.3014412 L14.0212885,12.3014412 C13.6720825,12.3014412 13.3516328,12.119691 13.171053,11.8278932 L13.1101089,11.7134506 L12.843,11.123 L11.0543013,16.3252797 C10.7632473,17.1714004 9.61350059,17.2257266 9.2229657,16.4656718 L9.17251441,16.3515501 L5.911,7.666 L4.06961629,11.9129275 C3.92868437,12.2378559 3.62824407,12.4608549 3.28337707,12.5063988 L3.15219421,12.515012 L0,12.515012 L0,10.515012 L2.495,10.515 L5.06054244,4.60208453 Z"/></svg>

<svg viewBox="0 0 20 20"><path fill="#46D5C7" d="M5.06 4.602c.341-.785 1.428-.796 1.803-.068l.051.114 3.153 8.398 1.704-4.954c.28-.815 1.373-.905 1.799-.199l.058.112 1.038 2.296H20v2h-5.979a1 1 0 01-.85-.473l-.06-.115-.268-.59-1.789 5.202c-.29.846-1.44.9-1.831.14l-.05-.113L5.91 7.666l-1.84 4.247a1 1 0 01-.787.593l-.13.009H0v-2h2.495l2.566-5.913z"/></svg>
